assets/svg/instagram.svg

<svg width="48" height="48" viewBox="0 0 48 48" fill="none" xmlns="http://www.w3.org/2000/svg">
<path d="M24 7.6H32.1C33.3648 7.61486 34.6172 7.8518 35.8 8.3C36.6614 8.63681 37.4437 9.14832 38.0977 9.80232C38.7517 10.4563 39.2632 11.2386 39.6 12.1C40.0482 13.2828 40.2851 14.5352 40.3 15.8C40.4 17.9 40.4 18.6 40.4 23.9C40.4 29.2 40.4 29.9 40.3 32C40.2851 33.2648 40.0482 34.5172 39.6 35.7C39.2632 36.5614 38.7517 37.3437 38.0977 37.9977C37.4437 38.6517 36.6614 39.1632 35.8 39.5C34.6172 39.9482 33.3648 40.1851 32.1 40.2H15.9C14.6352 40.1851 13.3828 39.9482 12.2 39.5C11.3386 39.1632 10.5563 38.6517 9.90232 37.9977C9.24832 37.3437 8.73681 36.5614 8.4 35.7C7.95179 34.5172 7.71486 33.2648 7.7 32C7.6 29.9 7.6 29.2 7.6 23.9C7.6 18.6 7.6 17.9 7.7 15.8C7.71486 14.5352 7.95179 13.2828 8.4 12.1C8.73681 11.2386 9.24832 10.4563 9.90232 9.80232C10.5563 9.14832 11.3386 8.63681 12.2 8.3C13.3828 7.8518 14.6352 7.61486 15.9 7.6H24V7.6ZM24 4H15.8C14.1327 4.07013 12.4834 4.37306 10.9 4.9C9.56581 5.4696 8.37152 6.32266 7.4 7.4C6.35342 8.35658 5.56275 9.55976 5.1 10.9C4.48539 12.4631 4.14703 14.1211 4.1 15.8C4 17.9 4 18.6 4 24C4 29.4 4 30.1 4.1 32.2C4.14703 33.8789 4.48539 35.5369 5.1 37.1C5.56275 38.4402 6.35342 39.6434 7.4 40.6C8.35658 41.6466 9.55976 42.4373 10.9 42.9C12.4631 43.5146 14.1211 43.853 15.8 43.9H32.2C33.8789 43.853 35.5369 43.5146 37.1 42.9C38.4402 42.4373 39.6434 41.6466 40.6 40.6C41.6412 39.6185 42.4596 38.4249 43 37.1C43.5269 35.5166 43.8299 33.8673 43.9 32.2C44 30.1 44 29.4 44 24C44 18.6 44 17.9 43.9 15.8C43.8299 14.1327 43.5269 12.4834 43 10.9C42.4596 9.57506 41.6412 8.38152 40.6 7.4C39.6185 6.35881 38.4249 5.54038 37.1 5C35.5166 4.47306 33.8673 4.17013 32.2 4.1H24" fill="white"/>
<path d="M24 13.7C21.9629 13.7 19.9715 14.3041 18.2776 15.4359C16.5838 16.5677 15.2636 18.1763 14.4841 20.0584C13.7045 21.9405 13.5005 24.0114 13.8979 26.0094C14.2954 28.0074 15.2763 29.8427 16.7168 31.2832C18.1573 32.7237 19.9926 33.7047 21.9906 34.1021C23.9886 34.4995 26.0596 34.2956 27.9417 33.516C29.8237 32.7364 31.4324 31.4162 32.5642 29.7224C33.6959 28.0286 34.3 26.0372 34.3 24C34.3 21.2683 33.2148 18.6484 31.2832 16.7168C29.3516 14.7852 26.7317 13.7 24 13.7ZM24 30.7C22.6749 30.7 21.3795 30.3071 20.2777 29.5709C19.1759 28.8347 18.3171 27.7883 17.81 26.564C17.3029 25.3397 17.1702 23.9926 17.4288 22.6929C17.6873 21.3932 18.3254 20.1994 19.2624 19.2624C20.1994 18.3254 21.3932 17.6873 22.6929 17.4288C23.9926 17.1702 25.3397 17.3029 26.564 17.81C27.7883 18.3171 28.8347 19.1759 29.5709 20.2777C30.3071 21.3795 30.7 22.6749 30.7 24C30.7 25.777 29.9941 27.4811 28.7376 28.7376C27.4811 29.9941 25.777 30.7 24 30.7" fill="white"/>
<path d="M37.1 13.3C37.1 13.7747 36.9592 14.2387 36.6955 14.6334C36.4318 15.028 36.057 15.3357 35.6184 15.5173C35.1799 15.699 34.6973 15.7465 34.2318 15.6539C33.7662 15.5613 33.3386 15.3327 33.0029 14.9971C32.6673 14.6614 32.4387 14.2338 32.3461 13.7682C32.2535 13.3027 32.301 12.8201 32.4827 12.3816C32.6643 11.943 32.9719 11.5682 33.3666 11.3045C33.7613 11.0408 34.2253 10.9 34.7 10.9C35.3365 10.9 35.947 11.1529 36.397 11.6029C36.8471 12.053 37.1 12.6635 37.1 13.3" fill="white"/>
</svg>

<svg xmlns="http://www.w3.org/2000/svg" width="48" height="48" viewBox="0 0 48 48"><rect width="48" height="48" fill="none"/><rect width="48" height="48" fill="none"/><path d="M24,7.6h8.1a10.8,10.8,0,0,1,3.7.7,6.7,6.7,0,0,1,3.8,3.8,10.8,10.8,0,0,1,.7,3.7c.1,2.1.1,2.8.1,8.1s0,6-.1,8.1a10.8,10.8,0,0,1-.7,3.7,6.7,6.7,0,0,1-3.8,3.8,10.8,10.8,0,0,1-3.7.7H15.9a10.8,10.8,0,0,1-3.7-.7,6.7,6.7,0,0,1-3.8-3.8A10.8,10.8,0,0,1,7.7,32c-.1-2.1-.1-2.8-.1-8.1s0-6,.1-8.1a10.8,10.8,0,0,1,.7-3.7,6.7,6.7,0,0,1,3.8-3.8,10.8,10.8,0,0,1,3.7-.7H24M24,4H15.8a17.9,17.9,0,0,0-4.9.9A10,10,0,0,0,7.4,7.4a8.5,8.5,0,0,0-2.3,3.5,14.5,14.5,0,0,0-1,4.9C4,17.9,4,18.6,4,24s0,6.1.1,8.2a14.5,14.5,0,0,0,1,4.9,8.5,8.5,0,0,0,2.3,3.5,8.5,8.5,0,0,0,3.5,2.3,14.5,14.5,0,0,0,4.9,1H32.2a14.5,14.5,0,0,0,4.9-1,8.5,8.5,0,0,0,3.5-2.3A10,10,0,0,0,43,37.1a17.9,17.9,0,0,0,.9-4.9c.1-2.1.1-2.8.1-8.2s0-6.1-.1-8.2a17.9,17.9,0,0,0-.9-4.9,10,10,0,0,0-2.4-3.5A10,10,0,0,0,37.1,5a17.9,17.9,0,0,0-4.9-.9H24" fill="#fff"/><path d="M24,13.7A10.3,10.3,0,1,0,34.3,24,10.3,10.3,0,0,0,24,13.7m0,17A6.7,6.7,0,1,1,30.7,24,6.7,6.7,0,0,1,24,30.7" fill="#fff"/><path d="M37.1,13.3a2.4,2.4,0,1,1-2.4-2.4,2.4,2.4,0,0,1,2.4,2.4" fill="#fff"/></svg>
